(G-CODE GENERATED BY FLATCAM v8.991 - www.flatcam.org - Version Date: 2019/12/27)

(Name: TMC2130.drl_cnc)
(Type: G-code from Excellon)
(Units: MM)

(Created on Friday, 25 September 2020 at 18:52)

(Feedrate: 300.0 mm/min)
(Feedrate rapids 1500.0 mm/min)

(Z_Cut: -2.2 mm)
(Z_Move: 2.0 mm)
(Z Toolchange: 15.0 mm)
(X,Y Toolchange: 0.0000, 0.0000 mm)
(Z Start: None mm)
(Z End: 0.5 mm)
(Steps per circle: 64)
(Preprocessor Excellon: default)

(X range: -161.4000 ...   -5.4000  mm)
(Y range:    4.5000 ...   56.7000  mm)

(Spindle Speed: None RPM)
G21
G90

G01 F300.00
G00 Z2.0000

M03
G00 X-131.2000 Y45.1000
G01 Z-2.2000

G00 Z2.0000
G00 X-128.7010 Y45.1000
G01 Z-2.2000

G00 Z2.0000
G00 X-107.1500 Y45.1000
G01 Z-2.2000

G00 Z2.0000
G00 X-104.6500 Y45.1000
G01 Z-2.2000

G00 Z2.0000
G00 X-83.6000 Y45.2000
G01 Z-2.2000

G00 Z2.0000
G00 X-59.8500 Y45.1000
G01 Z-2.2000

G00 Z2.0000
G00 X-57.3500 Y45.1000
G01 Z-2.2000

G00 Z2.0000
G00 X-81.1010 Y45.2000
G01 Z-2.2000

G00 Z2.0000
G00 X-152.0500 Y43.9000
G01 Z-2.2000

G00 Z2.0000
G00 X-154.5500 Y43.9000
G01 Z-2.2000

G00 Z2.0000
M03
G00 X-154.5800 Y39.2800
G01 Z-2.2000

G00 Z2.0000
G00 X-154.5800 Y36.7000
G01 Z-2.2000

G00 Z2.0000
G00 X-152.0400 Y36.7000
G01 Z-2.2000

G00 Z2.0000
G00 X-149.5000 Y36.7000
G01 Z-2.2000

G00 Z2.0000
G00 X-146.9600 Y36.7000
G01 Z-2.2000

G00 Z2.0000
G00 X-144.4200 Y36.7000
G01 Z-2.2000

G00 Z2.0000
G00 X-141.8800 Y36.7000
G01 Z-2.2000

G00 Z2.0000
G00 X-139.3400 Y36.7000
G01 Z-2.2000

G00 Z2.0000
G00 X-136.8000 Y36.7000
G01 Z-2.2000

G00 Z2.0000
G00 X-131.2800 Y36.6000
G01 Z-2.2000

G00 Z2.0000
G00 X-128.7400 Y36.6000
G01 Z-2.2000

G00 Z2.0000
G00 X-126.2000 Y36.6000
G01 Z-2.2000

G00 Z2.0000
G00 X-123.6600 Y36.6000
G01 Z-2.2000

G00 Z2.0000
G00 X-121.1200 Y36.6000
G01 Z-2.2000

G00 Z2.0000
G00 X-118.5800 Y36.6000
G01 Z-2.2000

G00 Z2.0000
G00 X-116.0400 Y36.6000
G01 Z-2.2000

G00 Z2.0000
G00 X-113.5000 Y36.6000
G01 Z-2.2000

G00 Z2.0000
G00 X-107.2800 Y36.6000
G01 Z-2.2000

G00 Z2.0000
G00 X-104.7400 Y36.6000
G01 Z-2.2000

G00 Z2.0000
G00 X-102.2000 Y36.6000
G01 Z-2.2000

G00 Z2.0000
G00 X-99.6600 Y36.6000
G01 Z-2.2000

G00 Z2.0000
G00 X-97.1200 Y36.6000
G01 Z-2.2000

G00 Z2.0000
G00 X-94.5800 Y36.6000
G01 Z-2.2000

G00 Z2.0000
G00 X-92.0400 Y36.6000
G01 Z-2.2000

G00 Z2.0000
G00 X-89.5000 Y36.6000
G01 Z-2.2000

G00 Z2.0000
G00 X-83.4800 Y36.6000
G01 Z-2.2000

G00 Z2.0000
G00 X-80.9400 Y36.6000
G01 Z-2.2000

G00 Z2.0000
G00 X-78.4000 Y36.6000
G01 Z-2.2000

G00 Z2.0000
G00 X-67.8220 Y27.0220
G01 Z-2.2000

G00 Z2.0000
G00 X-70.7800 Y23.9000
G01 Z-2.2000

G00 Z2.0000
G00 X-73.3200 Y23.9000
G01 Z-2.2000

G00 Z2.0000
G00 X-75.8600 Y23.9000
G01 Z-2.2000

G00 Z2.0000
G00 X-78.4000 Y23.9000
G01 Z-2.2000

G00 Z2.0000
G00 X-80.9400 Y23.9000
G01 Z-2.2000

G00 Z2.0000
G00 X-83.4800 Y23.9000
G01 Z-2.2000

G00 Z2.0000
G00 X-89.5000 Y23.9000
G01 Z-2.2000

G00 Z2.0000
G00 X-92.0400 Y23.9000
G01 Z-2.2000

G00 Z2.0000
G00 X-94.5800 Y23.9000
G01 Z-2.2000

G00 Z2.0000
G00 X-97.1200 Y23.9000
G01 Z-2.2000

G00 Z2.0000
G00 X-99.6600 Y23.9000
G01 Z-2.2000

G00 Z2.0000
G00 X-102.2000 Y23.9000
G01 Z-2.2000

G00 Z2.0000
G00 X-104.7400 Y23.9000
G01 Z-2.2000

G00 Z2.0000
G00 X-107.2800 Y23.9000
G01 Z-2.2000

G00 Z2.0000
G00 X-113.5000 Y23.9000
G01 Z-2.2000

G00 Z2.0000
G00 X-116.0400 Y23.9000
G01 Z-2.2000

G00 Z2.0000
G00 X-118.5800 Y23.9000
G01 Z-2.2000

G00 Z2.0000
G00 X-121.1200 Y23.9000
G01 Z-2.2000

G00 Z2.0000
G00 X-123.6600 Y23.9000
G01 Z-2.2000

G00 Z2.0000
G00 X-126.2000 Y23.9000
G01 Z-2.2000

G00 Z2.0000
G00 X-128.7400 Y23.9000
G01 Z-2.2000

G00 Z2.0000
G00 X-131.2800 Y23.9000
G01 Z-2.2000

G00 Z2.0000
G00 X-136.8000 Y24.0000
G01 Z-2.2000

G00 Z2.0000
G00 X-139.3400 Y24.0000
G01 Z-2.2000

G00 Z2.0000
G00 X-141.8800 Y24.0000
G01 Z-2.2000

G00 Z2.0000
G00 X-144.4200 Y24.0000
G01 Z-2.2000

G00 Z2.0000
G00 X-146.9600 Y24.0000
G01 Z-2.2000

G00 Z2.0000
G00 X-149.5000 Y24.0000
G01 Z-2.2000

G00 Z2.0000
G00 X-152.0400 Y24.0000
G01 Z-2.2000

G00 Z2.0000
G00 X-154.5800 Y24.0000
G01 Z-2.2000

G00 Z2.0000
G00 X-150.9000 Y17.8000
G01 Z-2.2000

G00 Z2.0000
G00 X-145.3000 Y17.8000
G01 Z-2.2000

G00 Z2.0000
G00 X-127.3000 Y17.9000
G01 Z-2.2000

G00 Z2.0000
G00 X-121.5000 Y17.9000
G01 Z-2.2000

G00 Z2.0000
G00 X-103.2000 Y17.5000
G01 Z-2.2000

G00 Z2.0000
G00 X-97.4000 Y17.5000
G01 Z-2.2000

G00 Z2.0000
G00 X-79.3000 Y16.8000
G01 Z-2.2000

G00 Z2.0000
G00 X-73.5000 Y16.8000
G01 Z-2.2000

G00 Z2.0000
G00 X-68.2400 Y23.9000
G01 Z-2.2000

G00 Z2.0000
G00 X-65.7000 Y23.9000
G01 Z-2.2000

G00 Z2.0000
G00 X-59.8220 Y23.9720
G01 Z-2.2000

G00 Z2.0000
G00 X-57.9000 Y17.4000
G01 Z-2.2000

G00 Z2.0000
G00 X-57.2820 Y23.9720
G01 Z-2.2000

G00 Z2.0000
G00 X-54.7420 Y23.9720
G01 Z-2.2000

G00 Z2.0000
G00 X-52.2020 Y23.9720
G01 Z-2.2000

G00 Z2.0000
G00 X-49.8000 Y17.4000
G01 Z-2.2000

G00 Z2.0000
G00 X-49.6620 Y23.9720
G01 Z-2.2000

G00 Z2.0000
G00 X-47.1210 Y23.9720
G01 Z-2.2000

G00 Z2.0000
G00 X-44.5820 Y23.9720
G01 Z-2.2000

G00 Z2.0000
G00 X-42.0410 Y23.9720
G01 Z-2.2000

G00 Z2.0000
G00 X-26.9280 Y27.0220
G01 Z-2.2000

G00 Z2.0000
G00 X-23.6880 Y27.0220
G01 Z-2.2000

G00 Z2.0000
G00 X-23.6880 Y36.6880
G01 Z-2.2000

G00 Z2.0000
G00 X-38.1000 Y44.0000
G01 Z-2.2000

G00 Z2.0000
G00 X-38.1000 Y35.3000
G01 Z-2.2000

G00 Z2.0000
G00 X-42.0410 Y36.6720
G01 Z-2.2000

G00 Z2.0000
G00 X-44.5820 Y36.6720
G01 Z-2.2000

G00 Z2.0000
G00 X-47.1210 Y36.6720
G01 Z-2.2000

G00 Z2.0000
G00 X-49.6620 Y36.6720
G01 Z-2.2000

G00 Z2.0000
G00 X-52.2020 Y36.6720
G01 Z-2.2000

G00 Z2.0000
G00 X-54.7420 Y36.6720
G01 Z-2.2000

G00 Z2.0000
G00 X-57.2820 Y36.6720
G01 Z-2.2000

G00 Z2.0000
G00 X-57.2000 Y41.2000
G01 Z-2.2000

G00 Z2.0000
G00 X-59.9000 Y39.4000
G01 Z-2.2000

G00 Z2.0000
G00 X-59.8220 Y36.6720
G01 Z-2.2000

G00 Z2.0000
G00 X-65.7000 Y36.6000
G01 Z-2.2000

G00 Z2.0000
G00 X-68.2400 Y36.6000
G01 Z-2.2000

G00 Z2.0000
G00 X-70.7800 Y36.6000
G01 Z-2.2000

G00 Z2.0000
G00 X-73.3200 Y36.6000
G01 Z-2.2000

G00 Z2.0000
G00 X-75.8600 Y36.6000
G01 Z-2.2000

G00 Z2.0000
G00 X-80.8870 Y41.3820
G01 Z-2.2000

G00 Z2.0000
G00 X-83.4000 Y39.4000
G01 Z-2.2000

G00 Z2.0000
G00 X-104.6820 Y41.3820
G01 Z-2.2000

G00 Z2.0000
G00 X-107.2800 Y39.3200
G01 Z-2.2000

G00 Z2.0000
G00 X-128.6500 Y41.3820
G01 Z-2.2000

G00 Z2.0000
G00 X-131.2800 Y39.2800
G01 Z-2.2000

G00 Z2.0000
G00 X-151.9820 Y41.3820
G01 Z-2.2000

G00 Z2.0000
M03
G00 X-59.8000 Y11.9000
G01 Z-2.2000

G00 Z2.0000
G00 X-57.3000 Y11.9000
G01 Z-2.2000

G00 Z2.0000
G00 X-54.8000 Y11.9000
G01 Z-2.2000

G00 Z2.0000
G00 X-52.3000 Y11.9000
G01 Z-2.2000

G00 Z2.0000
G00 X-49.8000 Y11.9000
G01 Z-2.2000

G00 Z2.0000
G00 X-47.3000 Y11.9000
G01 Z-2.2000

G00 Z2.0000
G00 X-44.8000 Y11.9000
G01 Z-2.2000

G00 Z2.0000
G00 X-42.3000 Y11.9000
G01 Z-2.2000

G00 Z2.0000
G00 X-42.3000 Y49.9000
G01 Z-2.2000

G00 Z2.0000
G00 X-44.8000 Y49.9000
G01 Z-2.2000

G00 Z2.0000
G00 X-47.3000 Y49.9000
G01 Z-2.2000

G00 Z2.0000
G00 X-49.8000 Y49.9000
G01 Z-2.2000

G00 Z2.0000
G00 X-52.3000 Y49.9000
G01 Z-2.2000

G00 Z2.0000
G00 X-54.8000 Y49.9000
G01 Z-2.2000

G00 Z2.0000
G00 X-57.3000 Y49.9000
G01 Z-2.2000

G00 Z2.0000
G00 X-59.8000 Y49.9000
G01 Z-2.2000

G00 Z2.0000
G00 X-65.9000 Y49.9000
G01 Z-2.2000

G00 Z2.0000
G00 X-68.4000 Y49.9000
G01 Z-2.2000

G00 Z2.0000
G00 X-70.9000 Y49.9000
G01 Z-2.2000

G00 Z2.0000
G00 X-73.4000 Y49.9000
G01 Z-2.2000

G00 Z2.0000
G00 X-75.9000 Y49.9000
G01 Z-2.2000

G00 Z2.0000
G00 X-78.4000 Y49.9000
G01 Z-2.2000

G00 Z2.0000
G00 X-80.9000 Y49.9000
G01 Z-2.2000

G00 Z2.0000
G00 X-83.4000 Y49.9000
G01 Z-2.2000

G00 Z2.0000
G00 X-89.6000 Y49.9000
G01 Z-2.2000

G00 Z2.0000
G00 X-92.1000 Y49.9000
G01 Z-2.2000

G00 Z2.0000
G00 X-94.6000 Y49.9000
G01 Z-2.2000

G00 Z2.0000
G00 X-97.1000 Y49.9000
G01 Z-2.2000

G00 Z2.0000
G00 X-99.6000 Y49.9000
G01 Z-2.2000

G00 Z2.0000
G00 X-102.1000 Y49.9000
G01 Z-2.2000

G00 Z2.0000
G00 X-104.6000 Y49.9000
G01 Z-2.2000

G00 Z2.0000
G00 X-107.1000 Y49.9000
G01 Z-2.2000

G00 Z2.0000
G00 X-113.7000 Y49.9000
G01 Z-2.2000

G00 Z2.0000
G00 X-116.2000 Y49.9000
G01 Z-2.2000

G00 Z2.0000
G00 X-118.7000 Y49.9000
G01 Z-2.2000

G00 Z2.0000
G00 X-121.2000 Y49.9000
G01 Z-2.2000

G00 Z2.0000
G00 X-123.7000 Y49.9000
G01 Z-2.2000

G00 Z2.0000
G00 X-126.2000 Y49.9000
G01 Z-2.2000

G00 Z2.0000
G00 X-128.7000 Y49.9000
G01 Z-2.2000

G00 Z2.0000
G00 X-131.2000 Y49.9000
G01 Z-2.2000

G00 Z2.0000
G00 X-137.0000 Y49.9000
G01 Z-2.2000

G00 Z2.0000
G00 X-139.5000 Y49.9000
G01 Z-2.2000

G00 Z2.0000
G00 X-142.0000 Y49.9000
G01 Z-2.2000

G00 Z2.0000
G00 X-144.5000 Y49.9000
G01 Z-2.2000

G00 Z2.0000
G00 X-147.0000 Y49.9000
G01 Z-2.2000

G00 Z2.0000
G00 X-149.5000 Y49.9000
G01 Z-2.2000

G00 Z2.0000
G00 X-152.0000 Y49.9000
G01 Z-2.2000

G00 Z2.0000
G00 X-154.5000 Y49.9000
G01 Z-2.2000

G00 Z2.0000
G00 X-155.3000 Y11.9000
G01 Z-2.2000

G00 Z2.0000
G00 X-152.8000 Y11.9000
G01 Z-2.2000

G00 Z2.0000
G00 X-150.3000 Y11.9000
G01 Z-2.2000

G00 Z2.0000
G00 X-147.8000 Y11.9000
G01 Z-2.2000

G00 Z2.0000
G00 X-145.3000 Y11.9000
G01 Z-2.2000

G00 Z2.0000
G00 X-142.8000 Y11.9000
G01 Z-2.2000

G00 Z2.0000
G00 X-140.3000 Y11.9000
G01 Z-2.2000

G00 Z2.0000
G00 X-137.8000 Y11.9000
G01 Z-2.2000

G00 Z2.0000
G00 X-131.5000 Y11.9000
G01 Z-2.2000

G00 Z2.0000
G00 X-129.0000 Y11.9000
G01 Z-2.2000

G00 Z2.0000
G00 X-126.5000 Y11.9000
G01 Z-2.2000

G00 Z2.0000
G00 X-124.0000 Y11.9000
G01 Z-2.2000

G00 Z2.0000
G00 X-121.5000 Y11.9000
G01 Z-2.2000

G00 Z2.0000
G00 X-119.0000 Y11.9000
G01 Z-2.2000

G00 Z2.0000
G00 X-116.5000 Y11.9000
G01 Z-2.2000

G00 Z2.0000
G00 X-114.0000 Y11.9000
G01 Z-2.2000

G00 Z2.0000
G00 X-107.4000 Y11.9000
G01 Z-2.2000

G00 Z2.0000
G00 X-104.9000 Y11.9000
G01 Z-2.2000

G00 Z2.0000
G00 X-102.4000 Y11.9000
G01 Z-2.2000

G00 Z2.0000
G00 X-99.9000 Y11.9000
G01 Z-2.2000

G00 Z2.0000
G00 X-97.4000 Y11.9000
G01 Z-2.2000

G00 Z2.0000
G00 X-94.9000 Y11.9000
G01 Z-2.2000

G00 Z2.0000
G00 X-92.4000 Y11.9000
G01 Z-2.2000

G00 Z2.0000
G00 X-89.9000 Y11.9000
G01 Z-2.2000

G00 Z2.0000
G00 X-83.5000 Y11.9000
G01 Z-2.2000

G00 Z2.0000
G00 X-81.0000 Y11.9000
G01 Z-2.2000

G00 Z2.0000
G00 X-78.5000 Y11.9000
G01 Z-2.2000

G00 Z2.0000
G00 X-76.0000 Y11.9000
G01 Z-2.2000

G00 Z2.0000
G00 X-73.5000 Y11.9000
G01 Z-2.2000

G00 Z2.0000
G00 X-71.0000 Y11.9000
G01 Z-2.2000

G00 Z2.0000
G00 X-68.5000 Y11.9000
G01 Z-2.2000

G00 Z2.0000
G00 X-66.0000 Y11.9000
G01 Z-2.2000

G00 Z2.0000
M03
G00 X-15.1810 Y47.0220
G01 Z-2.2000

G00 Z2.0000
G00 X-15.1810 Y42.0220
G01 Z-2.2000

G00 Z2.0000
G00 X-15.1810 Y37.0220
G01 Z-2.2000

G00 Z2.0000
G00 X-15.1810 Y32.0220
G01 Z-2.2000

G00 Z2.0000
G00 X-15.1810 Y27.0220
G01 Z-2.2000

G00 Z2.0000
G00 X-15.1810 Y22.0220
G01 Z-2.2000

G00 Z2.0000
M03
G00 X-159.8000 Y6.1000
G01 Z-2.2000

G00 Z2.0000
G00 X-159.8000 Y55.1000
G01 Z-2.2000

G00 Z2.0000
G00 X-7.0000 Y55.0000
G01 Z-2.2000

G00 Z2.0000
G00 X-7.0000 Y6.2000
G01 Z-2.2000

G00 Z2.0000
M05
G00 Z0.50
G00 X0.0 Y0.0

