(G-CODE GENERATED BY FLATCAM v8.991 - www.flatcam.org - Version Date: 2019/12/27)

(Name: TMC2130-B_Cu.gbr_iso_cnc)
(Type: G-code from Geometry)
(Units: MM)

(Created on Friday, 25 September 2020 at 17:59)

(TOOL DIAMETER: 0.15 mm)
(Feedrate: 350.0 mm/min)
(Feedrate_Z: 100.0 mm/min)
(Feedrate rapids 1500.0 mm/min)

(Z_Cut: -0.06 mm)
(Z_Move: 2.0 mm)
(Z Toolchange: 15.0 mm)
(X,Y Toolchange: 0.0000, 0.0000 mm)
(Z Start: None mm)
(Z End: 15.0 mm)
(Steps per circle: 64)
(Preprocessor Geometry: default)

(X range: -156.6705 ...   -9.4791  mm)
(Y range:    7.6791 ...   53.9709  mm)

(Spindle Speed: None RPM)
G21
G90
G94




G01 F350.00
G00 Z2.0000

M03
G00 X-28.2462 Y26.8885
G01 F100.00
G01 Z-0.0600
G01 F350.00
G01 X-28.2282 Y26.7671
G01 X-28.2267 Y26.7599
G01 X-28.1969 Y26.6409
G01 X-28.1948 Y26.6339
G01 X-28.1535 Y26.5184
G01 X-28.1506 Y26.5116
G01 X-28.0982 Y26.4007
G01 X-28.0947 Y26.3942
G01 X-28.0317 Y26.2890
G01 X-28.0276 Y26.2829
G01 X-27.9545 Y26.1843
G01 X-27.9498 Y26.1786
G01 X-27.8675 Y26.0877
G01 X-27.8623 Y26.0825
G01 X-27.7714 Y26.0002
G01 X-27.7657 Y25.9955
G01 X-27.6671 Y25.9224
G01 X-27.6610 Y25.9183
G01 X-27.5558 Y25.8553
G01 X-27.5493 Y25.8518
G01 X-27.4384 Y25.7994
G01 X-27.4316 Y25.7965
G01 X-27.3161 Y25.7552
G01 X-27.3091 Y25.7531
G01 X-27.1901 Y25.7233
G01 X-27.1829 Y25.7218
G01 X-27.0615 Y25.7038
G01 X-27.0542 Y25.7031
G01 X-26.9317 Y25.6971
G01 X-26.9243 Y25.6971
G01 X-26.8018 Y25.7031
G01 X-26.7945 Y25.7038
G01 X-26.6731 Y25.7218
G01 X-26.6659 Y25.7233
G01 X-26.5469 Y25.7531
G01 X-26.5399 Y25.7552
G01 X-26.4244 Y25.7965
G01 X-26.4176 Y25.7994
G01 X-26.3067 Y25.8518
G01 X-26.3002 Y25.8553
G01 X-26.1950 Y25.9183
G01 X-26.1889 Y25.9224
G01 X-26.0903 Y25.9955
G01 X-26.0846 Y26.0002
G01 X-25.9937 Y26.0825
G01 X-25.9885 Y26.0877
G01 X-25.9062 Y26.1786
G01 X-25.8924 Y26.1966
G01 X-25.0269 Y26.1966
G01 X-24.9990 Y26.1501
G01 X-24.9949 Y26.1440
G01 X-24.9073 Y26.0257
G01 X-24.9026 Y26.0200
G01 X-24.8037 Y25.9110
G01 X-24.7985 Y25.9058
G01 X-24.6895 Y25.8069
G01 X-24.6838 Y25.8022
G01 X-24.5655 Y25.7146
G01 X-24.5594 Y25.7105
G01 X-24.4332 Y25.6348
G01 X-24.4267 Y25.6313
G01 X-24.2936 Y25.5684
G01 X-24.2868 Y25.5656
G01 X-24.1482 Y25.5160
G01 X-24.1412 Y25.5138
G01 X-23.9984 Y25.4781
G01 X-23.9911 Y25.4766
G01 X-23.8455 Y25.4550
G01 X-23.8382 Y25.4543
G01 X-23.6912 Y25.4471
G01 X-23.6838 Y25.4471
G01 X-23.5368 Y25.4543
G01 X-23.5295 Y25.4550
G01 X-23.3839 Y25.4766
G01 X-23.3766 Y25.4781
G01 X-23.2338 Y25.5138
G01 X-23.2268 Y25.5160
G01 X-23.0882 Y25.5656
G01 X-23.0814 Y25.5684
G01 X-22.9483 Y25.6313
G01 X-22.9418 Y25.6348
G01 X-22.8391 Y25.6964
G01 X-15.8241 Y25.6964
G01 X-15.7488 Y25.6608
G01 X-15.7420 Y25.6580
G01 X-15.6127 Y25.6117
G01 X-15.6056 Y25.6095
G01 X-15.4723 Y25.5761
G01 X-15.4651 Y25.5747
G01 X-15.3292 Y25.5546
G01 X-15.3219 Y25.5538
G01 X-15.1847 Y25.5471
G01 X-15.1773 Y25.5471
G01 X-15.0401 Y25.5538
G01 X-15.0328 Y25.5546
G01 X-14.8969 Y25.5747
G01 X-14.8897 Y25.5761
G01 X-14.7564 Y25.6095
G01 X-14.7493 Y25.6117
G01 X-14.6200 Y25.6580
G01 X-14.6132 Y25.6608
G01 X-14.4890 Y25.7195
G01 X-14.4825 Y25.7230
G01 X-14.3646 Y25.7936
G01 X-14.3585 Y25.7977
G01 X-14.2482 Y25.8795
G01 X-14.2425 Y25.8842
G01 X-14.1407 Y25.9765
G01 X-14.1355 Y25.9817
G01 X-14.0432 Y26.0835
G01 X-14.0385 Y26.0892
G01 X-13.9567 Y26.1995
G01 X-13.9526 Y26.2056
G01 X-13.8820 Y26.3235
G01 X-13.8785 Y26.3300
G01 X-13.8198 Y26.4542
G01 X-13.8170 Y26.4610
G01 X-13.7707 Y26.5903
G01 X-13.7685 Y26.5974
G01 X-13.7351 Y26.7307
G01 X-13.7337 Y26.7379
G01 X-13.7136 Y26.8738
G01 X-13.7128 Y26.8811
G01 X-13.7061 Y27.0183
G01 X-13.7061 Y27.0257
G01 X-13.7128 Y27.1629
G01 X-13.7136 Y27.1702
G01 X-13.7337 Y27.3061
G01 X-13.7351 Y27.3133
G01 X-13.7685 Y27.4466
G01 X-13.7707 Y27.4537
G01 X-13.8170 Y27.5830
G01 X-13.8198 Y27.5898
G01 X-13.8785 Y27.7140
G01 X-13.8820 Y27.7205
G01 X-13.9526 Y27.8384
G01 X-13.9567 Y27.8445
G01 X-14.0385 Y27.9548
G01 X-14.0432 Y27.9605
G01 X-14.1355 Y28.0623
G01 X-14.1407 Y28.0675
G01 X-14.2425 Y28.1598
G01 X-14.2482 Y28.1645
G01 X-14.3585 Y28.2463
G01 X-14.3646 Y28.2504
G01 X-14.4825 Y28.3210
G01 X-14.4890 Y28.3245
G01 X-14.6132 Y28.3832
G01 X-14.6200 Y28.3860
G01 X-14.7493 Y28.4323
G01 X-14.7564 Y28.4345
G01 X-14.8897 Y28.4679
G01 X-14.8969 Y28.4693
G01 X-15.0328 Y28.4894
G01 X-15.0401 Y28.4902
G01 X-15.1773 Y28.4969
G01 X-15.1847 Y28.4969
G01 X-15.3219 Y28.4902
G01 X-15.3292 Y28.4894
G01 X-15.4651 Y28.4693
G01 X-15.4723 Y28.4679
G01 X-15.6056 Y28.4345
G01 X-15.6127 Y28.4323
G01 X-15.7420 Y28.3860
G01 X-15.7488 Y28.3832
G01 X-15.8241 Y28.3476
G01 X-22.8391 Y28.3476
G01 X-22.9418 Y28.4092
G01 X-22.9483 Y28.4127
G01 X-23.0814 Y28.4756
G01 X-23.0882 Y28.4784
G01 X-23.2268 Y28.5280
G01 X-23.2338 Y28.5302
G01 X-23.3766 Y28.5659
G01 X-23.3839 Y28.5674
G01 X-23.5295 Y28.5890
G01 X-23.5368 Y28.5897
G01 X-23.6838 Y28.5969
G01 X-23.6912 Y28.5969
G01 X-23.8382 Y28.5897
G01 X-23.8455 Y28.5890
G01 X-23.9911 Y28.5674
G01 X-23.9984 Y28.5659
G01 X-24.1412 Y28.5302
G01 X-24.1482 Y28.5280
G01 X-24.2868 Y28.4784
G01 X-24.2936 Y28.4756
G01 X-24.4267 Y28.4127
G01 X-24.4332 Y28.4092
G01 X-24.5594 Y28.3335
G01 X-24.5655 Y28.3294
G01 X-24.6838 Y28.2418
G01 X-24.6895 Y28.2371
G01 X-24.7985 Y28.1382
G01 X-24.8037 Y28.1330
G01 X-24.9026 Y28.0240
G01 X-24.9073 Y28.0183
G01 X-24.9949 Y27.9000
G01 X-24.9990 Y27.8939
G01 X-25.0269 Y27.8474
G01 X-25.8924 Y27.8474
G01 X-25.9062 Y27.8654
G01 X-25.9885 Y27.9563
G01 X-25.9937 Y27.9615
G01 X-26.0846 Y28.0438
G01 X-26.0903 Y28.0485
G01 X-26.1889 Y28.1216
G01 X-26.1950 Y28.1257
G01 X-26.3002 Y28.1887
G01 X-26.3067 Y28.1922
G01 X-26.4176 Y28.2446
G01 X-26.4244 Y28.2475
G01 X-26.5399 Y28.2888
G01 X-26.5469 Y28.2909
G01 X-26.6659 Y28.3207
G01 X-26.6731 Y28.3222
G01 X-26.7945 Y28.3402
G01 X-26.8018 Y28.3409
G01 X-26.9243 Y28.3469
G01 X-26.9317 Y28.3469
G01 X-27.0542 Y28.3409
G01 X-27.0615 Y28.3402
G01 X-27.1829 Y28.3222
G01 X-27.1901 Y28.3207
G01 X-27.3091 Y28.2909
G01 X-27.3161 Y28.2888
G01 X-27.4316 Y28.2475
G01 X-27.4384 Y28.2446
G01 X-27.5493 Y28.1922
G01 X-27.5558 Y28.1887
G01 X-27.6610 Y28.1257
G01 X-27.6671 Y28.1216
G01 X-27.7657 Y28.0485
G01 X-27.7714 Y28.0438
G01 X-27.8623 Y27.9615
G01 X-27.8675 Y27.9563
G01 X-27.9498 Y27.8654
G01 X-27.9545 Y27.8597
G01 X-28.0276 Y27.7611
G01 X-28.0317 Y27.7550
G01 X-28.0947 Y27.6498
G01 X-28.0982 Y27.6433
G01 X-28.1506 Y27.5324
G01 X-28.1535 Y27.5256
G01 X-28.1948 Y27.4101
G01 X-28.1969 Y27.4031
G01 X-28.2267 Y27.2841
G01 X-28.2282 Y27.2769
G01 X-28.2462 Y27.1555
G01 X-28.2469 Y27.1482
G01 X-28.2529 Y27.0257
G01 X-28.2529 Y27.0183
G01 X-28.2469 Y26.8958
G01 X-28.2462 Y26.8885
G00 Z2.0000
G00 X-28.3931 Y26.8667
G01 F100.00
G01 Z-0.0600
G01 F350.00
G01 X-28.3751 Y26.7453
G01 X-28.3708 Y26.7238
G01 X-28.3410 Y26.6048
G01 X-28.3346 Y26.5838
G01 X-28.2933 Y26.4684
G01 X-28.2849 Y26.4481
G01 X-28.2324 Y26.3372
G01 X-28.2221 Y26.3179
G01 X-28.1590 Y26.2126
G01 X-28.1469 Y26.1944
G01 X-28.0738 Y26.0959
G01 X-28.0599 Y26.0789
G01 X-27.9775 Y25.9880
G01 X-27.9620 Y25.9725
G01 X-27.8711 Y25.8901
G01 X-27.8541 Y25.8762
G01 X-27.7556 Y25.8031
G01 X-27.7374 Y25.7910
G01 X-27.6321 Y25.7279
G01 X-27.6128 Y25.7176
G01 X-27.5019 Y25.6651
G01 X-27.4816 Y25.6567
G01 X-27.3662 Y25.6154
G01 X-27.3452 Y25.6090
G01 X-27.2262 Y25.5792
G01 X-27.2047 Y25.5749
G01 X-27.0833 Y25.5569
G01 X-27.0615 Y25.5548
G01 X-26.9390 Y25.5488
G01 X-26.9170 Y25.5488
G01 X-26.7945 Y25.5548
G01 X-26.7727 Y25.5569
G01 X-26.6513 Y25.5749
G01 X-26.6298 Y25.5792
G01 X-26.5108 Y25.6090
G01 X-26.4898 Y25.6154
G01 X-26.3744 Y25.6567
G01 X-26.3541 Y25.6651
G01 X-26.2432 Y25.7176
G01 X-26.2239 Y25.7279
G01 X-26.1186 Y25.7910
G01 X-26.1004 Y25.8031
G01 X-26.0019 Y25.8762
G01 X-25.9849 Y25.8901
G01 X-25.8940 Y25.9725
G01 X-25.8785 Y25.9880
G01 X-25.8240 Y26.0481
G01 X-25.1087 Y26.0481
G01 X-25.0265 Y25.9373
G01 X-25.0126 Y25.9203
G01 X-24.9138 Y25.8112
G01 X-24.8983 Y25.7957
G01 X-24.7892 Y25.6969
G01 X-24.7722 Y25.6830
G01 X-24.6540 Y25.5953
G01 X-24.6358 Y25.5831
G01 X-24.5095 Y25.5074
G01 X-24.4902 Y25.4971
G01 X-24.3571 Y25.4341
G01 X-24.3368 Y25.4257
G01 X-24.1982 Y25.3762
G01 X-24.1772 Y25.3698
G01 X-24.0344 Y25.3340
G01 X-24.0129 Y25.3297
G01 X-23.8673 Y25.3081
G01 X-23.8455 Y25.3060
G01 X-23.6985 Y25.2988
G01 X-23.6765 Y25.2988
G01 X-23.5295 Y25.3060
G01 X-23.5077 Y25.3081
G01 X-23.3621 Y25.3297
G01 X-23.3406 Y25.3340
G01 X-23.1978 Y25.3698
G01 X-23.1768 Y25.3762
G01 X-23.0382 Y25.4257
G01 X-23.0179 Y25.4341
G01 X-22.8848 Y25.4971
G01 X-22.8655 Y25.5074
G01 X-22.7980 Y25.5479
G01 X-15.8575 Y25.5479
G01 X-15.8123 Y25.5265
G01 X-15.7921 Y25.5181
G01 X-15.6627 Y25.4718
G01 X-15.6417 Y25.4655
G01 X-15.5084 Y25.4321
G01 X-15.4869 Y25.4278
G01 X-15.3510 Y25.4077
G01 X-15.3292 Y25.4055
G01 X-15.1920 Y25.3988
G01 X-15.1700 Y25.3988
G01 X-15.0328 Y25.4055
G01 X-15.0110 Y25.4077
G01 X-14.8751 Y25.4278
G01 X-14.8536 Y25.4321
G01 X-14.7203 Y25.4655
G01 X-14.6993 Y25.4718
G01 X-14.5699 Y25.5181
G01 X-14.5497 Y25.5265
G01 X-14.4255 Y25.5853
G01 X-14.4061 Y25.5956
G01 X-14.2883 Y25.6662
G01 X-14.2701 Y25.6784
G01 X-14.1597 Y25.7603
G01 X-14.1428 Y25.7742
G01 X-14.0410 Y25.8664
G01 X-14.0254 Y25.8820
G01 X-13.9332 Y25.9838
G01 X-13.9193 Y26.0007
G01 X-13.8374 Y26.1111
G01 X-13.8252 Y26.1293
G01 X-13.7546 Y26.2471
G01 X-13.7443 Y26.2665
G01 X-13.6855 Y26.3907
G01 X-13.6771 Y26.4109
G01 X-13.6308 Y26.5403
G01 X-13.6245 Y26.5613
G01 X-13.5911 Y26.6946
G01 X-13.5868 Y26.7161
G01 X-13.5667 Y26.8520
G01 X-13.5645 Y26.8738
G01 X-13.5578 Y27.0110
G01 X-13.5578 Y27.0330
G01 X-13.5645 Y27.1702
G01 X-13.5667 Y27.1920
G01 X-13.5868 Y27.3279
G01 X-13.5911 Y27.3494
G01 X-13.6245 Y27.4827
G01 X-13.6308 Y27.5037
G01 X-13.6771 Y27.6331
G01 X-13.6855 Y27.6533
G01 X-13.7443 Y27.7775
G01 X-13.7546 Y27.7969
G01 X-13.8252 Y27.9147
G01 X-13.8374 Y27.9329
G01 X-13.9193 Y28.0433
G01 X-13.9332 Y28.0602
G01 X-14.0254 Y28.1620
G01 X-14.0410 Y28.1776
G01 X-14.1428 Y28.2698
G01 X-14.1597 Y28.2837
G01 X-14.2701 Y28.3656
G01 X-14.2883 Y28.3778
G01 X-14.4061 Y28.4484
G01 X-14.4255 Y28.4587
G01 X-14.5497 Y28.5175
G01 X-14.5699 Y28.5259
G01 X-14.6993 Y28.5722
G01 X-14.7203 Y28.5785
G01 X-14.8536 Y28.6119
G01 X-14.8751 Y28.6162
G01 X-15.0110 Y28.6363
G01 X-15.0328 Y28.6385
G01 X-15.1700 Y28.6452
G01 X-15.1920 Y28.6452
G01 X-15.3292 Y28.6385
G01 X-15.3510 Y28.6363
G01 X-15.4869 Y28.6162
G01 X-15.5084 Y28.6119
G01 X-15.6417 Y28.5785
G01 X-15.6627 Y28.5722
G01 X-15.7921 Y28.5259
G01 X-15.8123 Y28.5175
G01 X-15.8575 Y28.4961
G01 X-22.7980 Y28.4961
G01 X-22.8655 Y28.5366
G01 X-22.8848 Y28.5469
G01 X-23.0179 Y28.6099
G01 X-23.0382 Y28.6183
G01 X-23.1768 Y28.6678
G01 X-23.1978 Y28.6742
G01 X-23.3406 Y28.7100
G01 X-23.3621 Y28.7143
G01 X-23.5077 Y28.7359
G01 X-23.5295 Y28.7380
G01 X-23.6765 Y28.7452
G01 X-23.6985 Y28.7452
G01 X-23.8455 Y28.7380
G01 X-23.8673 Y28.7359
G01 X-24.0129 Y28.7143
G01 X-24.0344 Y28.7100
G01 X-24.1772 Y28.6742
G01 X-24.1982 Y28.6678
G01 X-24.3368 Y28.6183
G01 X-24.3571 Y28.6099
G01 X-24.4902 Y28.5469
G01 X-24.5095 Y28.5366
G01 X-24.6358 Y28.4609
G01 X-24.6540 Y28.4487
G01 X-24.7722 Y28.3610
G01 X-24.7892 Y28.3471
G01 X-24.8983 Y28.2483
G01 X-24.9138 Y28.2328
G01 X-25.0126 Y28.1237
G01 X-25.0265 Y28.1067
G01 X-25.1087 Y27.9959
G01 X-25.8240 Y27.9959
G01 X-25.8785 Y28.0560
G01 X-25.8940 Y28.0715
G01 X-25.9849 Y28.1539
G01 X-26.0019 Y28.1678
G01 X-26.1004 Y28.2409
G01 X-26.1186 Y28.2530
G01 X-26.2239 Y28.3161
G01 X-26.2432 Y28.3264
G01 X-26.3541 Y28.3789
G01 X-26.3744 Y28.3873
G01 X-26.4898 Y28.4286
G01 X-26.5108 Y28.4350
G01 X-26.6298 Y28.4648
G01 X-26.6513 Y28.4691
G01 X-26.7727 Y28.4871
G01 X-26.7945 Y28.4892
G01 X-26.9170 Y28.4952
G01 X-26.9390 Y28.4952
G01 X-27.0615 Y28.4892
G01 X-27.0833 Y28.4871
G01 X-27.2047 Y28.4691
G01 X-27.2262 Y28.4648
G01 X-27.3452 Y28.4350
G01 X-27.3662 Y28.4286
G01 X-27.4816 Y28.3873
G01 X-27.5019 Y28.3789
G01 X-27.6128 Y28.3264
G01 X-27.6321 Y28.3161
G01 X-27.7374 Y28.2530
G01 X-27.7556 Y28.2409
G01 X-27.8541 Y28.1678
G01 X-27.8711 Y28.1539
G01 X-27.9620 Y28.0715
G01 X-27.9775 Y28.0560
G01 X-28.0599 Y27.9651
G01 X-28.0738 Y27.9481
G01 X-28.1469 Y27.8496
G01 X-28.1590 Y27.8314
G01 X-28.2221 Y27.7261
G01 X-28.2324 Y27.7068
G01 X-28.2849 Y27.5959
G01 X-28.2933 Y27.5756
G01 X-28.3346 Y27.4602
G01 X-28.3410 Y27.4392
G01 X-28.3708 Y27.3202
G01 X-28.3751 Y27.2987
G01 X-28.3931 Y27.1773
G01 X-28.3952 Y27.1555
G01 X-28.4012 Y27.0330
G01 X-28.4012 Y27.0110
G01 X-28.3952 Y26.8885
G01 X-28.3931 Y26.8667
G00 Z2.0000
G00 X-28.5400 Y26.8449
G01 F100.00
G01 Z-0.0600
G01 F350.00
G01 X-28.5220 Y26.7236
G01 X-28.5148 Y26.6877
G01 X-28.4850 Y26.5688
G01 X-28.4744 Y26.5338
G01 X-28.4331 Y26.4183
G01 X-28.4191 Y26.3846
G01 X-28.3667 Y26.2737
G01 X-28.3495 Y26.2415
G01 X-28.2864 Y26.1363
G01 X-28.2661 Y26.1059
G01 X-28.1931 Y26.0074
G01 X-28.1699 Y25.9792
G01 X-28.0875 Y25.8883
G01 X-28.0617 Y25.8625
G01 X-27.9708 Y25.7801
G01 X-27.9426 Y25.7569
G01 X-27.8441 Y25.6839
G01 X-27.8137 Y25.6636
G01 X-27.7085 Y25.6005
G01 X-27.6763 Y25.5833
G01 X-27.5654 Y25.5309
G01 X-27.5317 Y25.5169
G01 X-27.4162 Y25.4756
G01 X-27.3812 Y25.4650
G01 X-27.2623 Y25.4352
G01 X-27.2264 Y25.4280
G01 X-27.1051 Y25.4100
G01 X-27.0688 Y25.4065
G01 X-26.9463 Y25.4004
G01 X-26.9097 Y25.4004
G01 X-26.7872 Y25.4065
G01 X-26.7509 Y25.4100
G01 X-26.6296 Y25.4280
G01 X-26.5937 Y25.4352
G01 X-26.4748 Y25.4650
G01 X-26.4398 Y25.4756
G01 X-26.3243 Y25.5169
G01 X-26.2906 Y25.5309
G01 X-26.1797 Y25.5833
G01 X-26.1475 Y25.6005
G01 X-26.0423 Y25.6636
G01 X-26.0119 Y25.6839
G01 X-25.9134 Y25.7569
G01 X-25.8852 Y25.7801
G01 X-25.7943 Y25.8625
G01 X-25.7685 Y25.8883
G01 X-25.7582 Y25.8996
G01 X-25.1835 Y25.8996
G01 X-25.1458 Y25.8488
G01 X-25.1226 Y25.8206
G01 X-25.0238 Y25.7115
G01 X-24.9980 Y25.6857
G01 X-24.8889 Y25.5869
G01 X-24.8607 Y25.5637
G01 X-24.7425 Y25.4760
G01 X-24.7121 Y25.4557
G01 X-24.5858 Y25.3800
G01 X-24.5536 Y25.3628
G01 X-24.4206 Y25.2999
G01 X-24.3868 Y25.2859
G01 X-24.2483 Y25.2363
G01 X-24.2133 Y25.2257
G01 X-24.0705 Y25.1900
G01 X-24.0347 Y25.1828
G01 X-23.8891 Y25.1612
G01 X-23.8528 Y25.1577
G01 X-23.7058 Y25.1504
G01 X-23.6692 Y25.1504
G01 X-23.5222 Y25.1577
G01 X-23.4859 Y25.1612
G01 X-23.3403 Y25.1828
G01 X-23.3045 Y25.1900
G01 X-23.1617 Y25.2257
G01 X-23.1267 Y25.2363
G01 X-22.9882 Y25.2859
G01 X-22.9544 Y25.2999
G01 X-22.8214 Y25.3628
G01 X-22.7892 Y25.3800
G01 X-22.7569 Y25.3994
G01 X-15.8908 Y25.3994
G01 X-15.8758 Y25.3923
G01 X-15.8421 Y25.3783
G01 X-15.7127 Y25.3320
G01 X-15.6778 Y25.3214
G01 X-15.5445 Y25.2880
G01 X-15.5087 Y25.2809
G01 X-15.3728 Y25.2608
G01 X-15.3365 Y25.2572
G01 X-15.1993 Y25.2504
G01 X-15.1627 Y25.2504
G01 X-15.0255 Y25.2572
G01 X-14.9892 Y25.2608
G01 X-14.8533 Y25.2809
G01 X-14.8175 Y25.2880
G01 X-14.6842 Y25.3214
G01 X-14.6493 Y25.3320
G01 X-14.5199 Y25.3783
G01 X-14.4862 Y25.3923
G01 X-14.3620 Y25.4510
G01 X-14.3298 Y25.4682
G01 X-14.2120 Y25.5389
G01 X-14.1816 Y25.5591
G01 X-14.0712 Y25.6410
G01 X-14.0430 Y25.6642
G01 X-13.9412 Y25.7564
G01 X-13.9154 Y25.7822
G01 X-13.8232 Y25.8840
G01 X-13.8000 Y25.9122
G01 X-13.7181 Y26.0226
G01 X-13.6979 Y26.0530
G01 X-13.6272 Y26.1708
G01 X-13.6100 Y26.2030
G01 X-13.5513 Y26.3272
G01 X-13.5373 Y26.3609
G01 X-13.4910 Y26.4903
G01 X-13.4804 Y26.5252
G01 X-13.4470 Y26.6585
G01 X-13.4399 Y26.6943
G01 X-13.4198 Y26.8302
G01 X-13.4162 Y26.8665
G01 X-13.4094 Y27.0037
G01 X-13.4094 Y27.0403
G01 X-13.4162 Y27.1775
G01 X-13.4198 Y27.2138
G01 X-13.4399 Y27.3497
G01 X-13.4470 Y27.3855
G01 X-13.4804 Y27.5188
G01 X-13.4910 Y27.5537
G01 X-13.5373 Y27.6831
G01 X-13.5513 Y27.7168
G01 X-13.6100 Y27.8410
G01 X-13.6272 Y27.8732
G01 X-13.6979 Y27.9910
G01 X-13.7181 Y28.0214
G01 X-13.8000 Y28.1318
G01 X-13.8232 Y28.1600
G01 X-13.9154 Y28.2618
G01 X-13.9412 Y28.2876
G01 X-14.0430 Y28.3798
G01 X-14.0712 Y28.4030
G01 X-14.1816 Y28.4849
G01 X-14.2120 Y28.5051
G01 X-14.3298 Y28.5758
G01 X-14.3620 Y28.5930
G01 X-14.4862 Y28.6517
G01 X-14.5199 Y28.6657
G01 X-14.6493 Y28.7120
G01 X-14.6842 Y28.7226
G01 X-14.8175 Y28.7560
G01 X-14.8533 Y28.7631
G01 X-14.9892 Y28.7832
G01 X-15.0255 Y28.7868
G01 X-15.1627 Y28.7936
G01 X-15.1993 Y28.7936
G01 X-15.3365 Y28.7868
G01 X-15.3728 Y28.7832
